svg/fluentui-system-icons/ic_fluent_classification_24_filled.svg

<svg width="24" height="24" viewBox="0 0 24 24" fill="none" xmlns="http://www.w3.org/2000/svg">
<path d="M9.01838 6.00178L7.52668 7.50422L4.25 7.50511C3.83579 7.50511 3.5 7.84089 3.5 8.25511V19.7507C3.5 20.1649 3.83579 20.5007 4.25 20.5007H15.75C16.1642 20.5007 16.5 20.1649 16.5 19.7507L16.4976 16.4724L18 14.9807V19.7507C18 20.9934 16.9926 22.0007 15.75 22.0007H4.25C3.00736 22.0007 2 20.9934 2 19.7507V8.25511C2 7.01247 3.00736 6.00511 4.25 6.00511L9.01838 6.00178ZM5.2199 12.2202L7.219 10.2228C7.48524 9.95678 7.90164 9.93262 8.19516 10.1503L8.27926 10.2228L13.7802 15.7202C14.0466 15.9865 14.0709 16.4032 13.853 16.6969L13.7803 16.7811L11.7803 18.7811C11.5141 19.0473 11.0974 19.0715 10.8038 18.8537L10.7197 18.7811L5.21967 13.2811C4.95332 13.0147 4.92919 12.5979 5.14722 12.3043L5.2199 12.2202L7.219 10.2228L5.2199 12.2202ZM21.2797 2.71905C21.4615 2.90067 21.6151 3.10846 21.7355 3.33552C22.3753 4.54291 21.9593 6.0288 20.8122 6.73544L20.6651 6.81964L19.497 7.43784L20.013 7.95304C21.2353 9.17535 21.2804 11.129 20.1484 12.4047L20.0126 12.5488L18.7803 13.7811C18.5141 14.0473 18.0974 14.0715 17.8038 13.8537L17.7197 13.7811L17.25 13.3116L15.7803 14.7811C15.5141 15.0473 15.0974 15.0715 14.8038 14.8537L14.7197 14.7811L9.21967 9.28105C8.95332 9.0147 8.92919 8.59789 9.14722 8.30428L9.2199 8.22016L10.689 6.75064L10.2197 6.28105C9.95335 6.01473 9.92919 5.59797 10.1472 5.30435L10.2198 5.22024L11.4511 3.98962C12.674 2.76977 14.6259 2.72464 15.9032 3.85464L16.0475 3.99025L16.561 4.50384L17.1789 3.337C17.269 3.16685 17.3777 3.0075 17.5029 2.86186L17.6336 2.72089C18.64 1.71355 20.2724 1.71272 21.2797 2.71905ZM11.749 7.81361L10.8109 8.75095L15.25 13.1901L16.1892 12.2509L11.749 7.81361ZM18.6948 3.78101C18.6443 3.83164 18.5989 3.88711 18.5594 3.94657L18.5047 4.03866L17.672 5.61203L18.3885 6.32853L19.9627 5.49426C20.4884 5.21566 20.6887 4.56363 20.4101 4.03793C20.3598 3.94301 20.2956 3.85616 20.2196 3.78024C19.7983 3.35941 19.1157 3.35975 18.6948 3.78101Z" fill="#212121"/>
</svg>

<svg xmlns="http://www.w3.org/2000/svg" width="24" height="24"><path d="M9.018 6.002 7.527 7.504l-3.277.001a.75.75 0 0 0-.75.75v11.496c0 .414.336.75.75.75h11.5a.75.75 0 0 0 .75-.75l-.002-3.279L18 14.981v4.77A2.25 2.25 0 0 1 15.75 22H4.25A2.25 2.25 0 0 1 2 19.75V8.255a2.25 2.25 0 0 1 2.25-2.25l4.768-.003ZM5.22 12.22l1.999-1.997a.75.75 0 0 1 .976-.073l.084.073 5.501 5.497a.75.75 0 0 1 .073.977l-.073.084-2 2a.75.75 0 0 1-.976.073l-.084-.073-5.5-5.5a.75.75 0 0 1-.073-.977l.073-.084 1.999-1.997-2 1.997Zm16.06-9.5a2.58 2.58 0 0 1-.468 4.015l-.147.085-1.168.618.516.515a3.25 3.25 0 0 1 .135 4.452l-.135.144-1.233 1.232a.75.75 0 0 1-.976.073l-.084-.073-.47-.47-1.47 1.47a.75.75 0 0 1-.976.073l-.084-.073-5.5-5.5a.75.75 0 0 1-.073-.977l.073-.084 1.469-1.47-.47-.469a.75.75 0 0 1-.072-.977l.073-.084 1.231-1.23a3.254 3.254 0 0 1 4.452-.135l.144.135.514.514.618-1.167c.09-.17.199-.33.324-.475l.13-.141a2.578 2.578 0 0 1 3.647-.002Zm-9.531 5.094-.938.937 4.439 4.44.94-.94-4.441-4.437Zm6.946-4.033c-.05.05-.096.106-.136.166l-.054.092-.833 1.573.716.717 1.575-.835a1.077 1.077 0 1 0-1.268-1.713Z"/></svg>
